X: 7
T: LE DENICHEUR
M: 3/4
L: 1/8
Q:1/4=80
K:A
|EAB GFG|EC3C2|EAB GFG|ED3D2|
CB,C DEF|AG3GB|GF2 EEG|FF2 EAB|
GFG EC3|C2E EEE|EF3/2=G/2 F3|F2F BA^G|
BAF EAd|c2E EEE|ECE A3|A2E EEE|
EE^D =D3|D2F FFF|FF=F E3|E2E AAA|
BA^F G3|G2G cBA|GAF E3|E2E BBB|
AAA G3|G2G FFF|FG3/2E/2 A3|A2|
